X:290
T:Tell Her I Am
R:jig
H:See also #156
Z:id:hn-jig-290
M:6/8
K:G
edB ~G3|DED G2B|DED ~c3|BGE EBd|
edB ~G3|DED G2B|AGF GBA|1 GFE DBd:|2 GFE Ddc||
|:~B3 dBG|~B3 dBG|AcB AGA|BGE Edc|
~B3 deg|age d2B|cBA GBA|1 GFE Ddc:|2 GFE DBd||
|:efg efg|dgd Bcd|B~c2 aga|bge fed|
[1 efg efg|dgd Bcd|agf gba|gfe d2g:|
[2 def ~g3|gfe d2B|cBA GBA|GFE D2d||
